X: 141
T: Wedding Reel
T: MacLeod's Farewell
R: reel
M: 4/4
L: 1/8
K: Dmaj
DE|"D"F2BF "A"AFEF|"D" D2 DE FABd|"Em"e2 fd efdB| "A7"ABde dBAG|
"D"F2BF "A"AFEF|"D (Hm)" D2 DE FABd|"Em"e2fd efdB|1"A7" ABde "D"d2:|2 ABde d4||
"D"A3 f efdB| A3 f efdB| ABdA "Hm"BdAB|"Em" dBAF "A7"E2 DE|
"D"F2BF "A"AFEF|"D (Hm)" D2DE FABd|"Em" e2fd efdB|1 "A7"ABde "D"d4:|2 ABde d2||

